X:464
T:Louis's Waltz
D:Boys of the Lough, Good Friends...Good Music
Z:Nigel Gatherer
M:3/4
L:1/8
K:D
BAG | F2 DF Ad | f4    ef | gb bg fg | B3  dcB  |
      A2 EFGA  | c2 B2 A2 | F3  DFB  | A3
BAG | F2 DF Ad | f4    ef | gb bg fg | B3  dcB  |
      A2 EFGA  | c2 B2 c2 | d6-      | d3      :|
z3  | A3  A A2 | c2 B2 A2 | F3  DFA  | d2 c2 d2 |
      e4    ef | e2 A2 G2 | F4   FG  | F2 E2 F2 |
      G4    GG | c2 B2 A2 | d3  DFA  | d2 c2 d2 |
      E3   FEF | G2 F2 E2 | D6-      | D3     :|]
<end>
<start>
